!!!COM: Bach, Johann Sebastian
!!!OPR: Inventio
!!!OTL: Inventio 2
!!!XEN: Two-part Inventions [for keyboard]
!!!ONM: No. 2
!!!ONB: In c minor.
!!!SCT: BWV 773
!!!YEC: Copyright 1994, David Huron
!!!YEM: Rights to all derivative electronic formats reserved.
!! Performance duration: 1:57; performance tempo: 55.4 quarter-notes per minute.
!! (Andras Schiff, piano, "Two-Part Inventions BWV 772a-786; Three-part
!! Inventions BWV 787-801" Decca 411 974-2)
**kern	**kern
*staff2	*staff1
*clefF4	*clefG2
*k[b-e-a-]	*k[b-e-a-]
*c:	*c:
*M4/4	*M4/4
*MM55.4	*MM55.4
=1-	=1-
1r	8r
.	16cc
.	16bn
.	16cc
.	16dd
.	16ee-
.	16g
.	16a-
.	16b-
.	16a-
.	16f
.	16ff
.	16ee-
.	16dd
.	16cc
=2	=2
1r	16bn
.	16aa-
.	16gg
.	16ff
.	16ee-
.	16dd
.	16cc
.	16b
.	16cc
.	16dd
.	16cc
.	16dd
.	8.ddO
.	32cc
.	32dd
=3	=3
8r	16ee-
.	16dd
16c	16cc
16Bn	16dd
16c	16ee-
16d	16ff
16e-	8gg
16G	.
16A-	8ggM
16B-	.
16A-	8ff
16F	.
16f	8r
16e-	.
16d	8ff
16c	.
=4	=4
16Bn	8ffM
16a-	.
16g	8ee-
16f	.
16e-	8r
16d	.
16c	8dd
16B	.
16c	8ee-
16d	.
16c	[8a-
16d	.
8.dO	16a-]
.	16f
.	16b-
32c	16f
32d	.
=5	=5
16e-	8g
16d	.
16c	[8ee-
16d	.
16e-	16ee-]
16f	16dd
8g	16ee-
.	16b-
8gM	16cc
.	16ee-
8f	16aa-
.	16gg
8r	16ff
.	16ee-
8f	16dd
.	16cc
=6	=6
8fM	16b-
.	16dd
8e-	16gg
.	16ff
8r	16ee-
.	16dd
8d	16cc
.	16b-
8e-	16a-
.	16cc
8A-	16ff
.	16cc
16A-	8.ddM
16F	.
16B-	.
16F	16dd
=7	=7
8G	16ee-
.	16b-
[8e-	16cc
.	16b-
16e-]	[4gg
16d	.
16e-	.
16B-	.
16c	16gg]
16e-	16b-
16a-	16cc
16g	16b-
16f	[4aa-
16e-	.
16d	.
16c	.
=8	=8
16B-	16aa-]
16d	16b-
16g	16ee-
16f	16dd
16e-	{16gg
16d	16ff}
16c	16aa-
16B-	16gg
16A-	16ccc
16c	16bb-
16f	16aa-
16c	16gg
8.dM	16ff
.	16bb-
.	16aa-
16d	16bb-
=9	=9
16e-	16gg
16B-	16bb-
16c	16aa-
16B-	16bb-
[4g	16ee-
.	16gg
.	16ff
.	16gg
16g]	16cc
16B-	16dd
16c	16ee-
16B-	16ff
[4a-	16dd
.	16ee-
.	16ff
.	16gg
=10	=10
16a-]	16ee-
16B-	16ff
16e-	16gg
16d	16aa-
16g	16bb-
16f	16aa-
16a-	16ccc
16g	16bb-
16cc	16aa-
16b-	16gg
16a-	16ff
16g	16aa-
16f	[4dd
16b-	.
16a-	.
16b-	.
=11	=11
8g	16dd]
.	16dd
16E-	16gg
16F	16dd
16G	16ee-
16An	16cc
16B-	16dd
16D	16b-
16E-	[4cc
16F	.
16E-	.
16C	.
16c	16cc]
16B-	16gg
16A	16ff#
16G	16aan
=12	=12
16F#	16cc
16e-	16b-
16d	[8cc
16c	.
16B-	16cc]
16An	16ff#
16G	16een
16F#	16dd
16G	8.bb-
16A	.
16G	.
16A	16ee
8.AO	8.ff#
32G	16gg
32A	.
=13	=13
16B-	8gg
16An	.
16G	16g
16A	16f#
16B-	16g
16c	16an
8d	16b-
.	16d
8dM	16e-
.	16fn
8c	16e-
.	16c
8r	16cc
.	16b-
8c	16a
.	16g
=14	=14
8cM	16f#
.	16ee-
8B-	16dd
.	16cc
8r	16b-
.	16an
8An	16g
.	16f#
8B-	16g
.	16a
[8E-	16g
.	16a
16E-]	8.aO
16C	.
16Fn	.
16C	32g
.	32a
=15	=15
8D	16b-
.	16an
[8B-	16g
.	16a
16B-]	16b-
16An	16cc
16B-	8dd
16F	.
16G	8ddM
16B-	.
16e-	8cc
16d	.
16c	8r
16B-	.
16A	8cc
16G	.
=16	=16
16F	8ccM
16An	.
16d	8b-
16c	.
16B-	8r
16A	.
16G	8an
16F	.
16E-	8b-
16G	.
16c	[8e-
16G	.
8.AM	16e-]
.	16c
.	16f
16A	16c
=17	=17
16B-	8d
16F	.
16G	[8b-
16F	.
[4d	16b-]
.	16an
.	16b-
.	16f
16d]	16g
16F	16b-
16G	16ee-
16F	16dd
[4e-	16cc
.	16b-
.	16a
.	16g
=18	=18
16e-]	16f
16F	16an
16B-	16dd
16An	16cc
16d	16b-
16c	16a
16e-	16g
16d	16f
16g	16e-
16f	16g
16e-	16cc
16d	16g
16c	8.aM
16f	.
16e-	.
16f	16a
=19	=19
16d	16b-
16f	16f
16e-	16g
16f	16f
16B-	[4dd
16d	.
16c	.
16d	.
16G	16dd]
16An	16f
16B-	16g
16c	16f
16A	[4ee-
16B-	.
16c	.
16d	.
=20	=20
16B-	16ee-]
16c	16f
16d	16b-
16e-	16an
16f	16dd
16e-	16cc
16g	16ee-
16f	16dd
16e-	16gg
16d	16ff
16c	16ee-
16e-	16dd
[4An	16cc
.	16ff
.	16ee-
.	16ff
=21	=21
16A]	16dd
16D	16cc
16G	16b-
16F#	16an
16B-	16dd
16An	16cc
16c	16ee-
16B-	16dd
16e-	16cc
16d	16b-
16c	16a
16B-	16cc
16A	[4ff
16d	.
16c	.
16d	.
=22	=22
16Bn	16ff]
16f	16g
16e-	16cc
16d	16bn
16c	16ee-
16B-	16dd
16A-	16ff
16G	16ee-
16F	16aa-
16E-	16gg
16D	16ff
16C	16ee-
8G	16dd
.	16gg
8GG	16ff
.	16gg
=23	=23
8.C	16ee-
.	16dd
.	16cc
16D	16bn
16E-	16cc
16F	16dd
8G	16ee-
.	16g
8GM	16a-
.	16b-
8F	16a-
.	16f
8r	16ff
.	16ee-
8F	16dd
.	16cc
=24	=24
8FM	16bn
.	16aa-
[8E-	16gg
.	16ff
16E-]	16ee-
16F	16dd
16E-	16cc
16D	16b
16C	16cc
16BB-	16dd
16AA-	16cc
16GG	16dd
16FF	8.ddO
16EE-	.
16FF	.
16GG	32cc
.	32dd
=25	=25
8CC	16ee-
.	16dd
16C	16cc
16BBn	16dd
16C	16ee-
16D	16ff
16E-	8gg
16GG	.
16AA-	8ggM
16BB-	.
16AA-	8ff
16FF	.
16F	8r
16E-	.
16D	8ff
16C	.
=26	=26
16BBn	8ffM
16A-	.
16G	16ee-
16F	16dd
16E-	16gg
16D	16ff
16C	16aa-
16BB	16gg
16C	8.gg
16GG	.
16AA-	.
16FF	16aa-
8GG	8.ddM
8GG	.
.	16cc
=27	=27
1CC;	1cc;
==|!	==|!
*-	*-
!!!CDT: 1685/3//-1750/7/28
!!!OCY: Deutschland
!!!AGN: polyphony
!!!AST: baroque
!!!AMT: simple quadruple
!!!SCA: Bach-Werke-Verzeichnis
!!!YOR: Bach Gesellschaft
!!!AIN: cemb; clavi
!!!EEV: 1.0
!!!RDT: 1986 November
!!!YER: 1995 May 22
!!!YEN: Canada
!!!EFL: 2/15
!!!EED: David Huron
